X: 155
T: No_63_Initiation_Song.krn
N: Derived from No_63_Initiation_Song.krn
%%abc-version 2.0
%%abcx-abcm2ps-target-version 5.9.1 (29 Sep 2008)
%%abc-creator hum2abc beta
%%abcx-conversion-date 2019/03/15 08:29:13
%%humdrum-veritas 655084898
%%humdrum-veritas-data 1093042304
%%linebreak <none>
%%barnumbers 0
L: 1/8
M: 4/4
%%staves {1 2}
V: 1 clef=bass
V: 2 clef=bass
K: Eb
[V:1] C2CC [I:setbarnb 1]| 
[V:2] z4 | 
[V:1] C4G,G,G,2 | 
[V:2] G,,2G,,2G,,2G,,2 | 
[V:1] C4C2CB, | 
[V:2] G,,2G,,2G,,2G,,2 | 
[V:1] G,4E,E,E,2 | 
[V:2] z8 | 
[V:1] G,4G,2F,F, | 
[V:2] z8 | 
[V:1] E,4C,C,C,2 | 
[V:2] z8 | 
[V:1] F,4E,2E,E, | 
[V:2] z8 | 
[V:1] E,4C,C,C,2 | 
[V:2] z8 | 
[V:1] C,4C,2C,C, | 
[V:2] z8 | 
[V:1] C,4C,C,C,2 ||  
[V:2] z8 ||  
[V:1] [M:2/4]C,7/C,/ ||  
[V:2] [M:2/4]z4 ||  
[V:1] [M:3/4]C,3/C,/C,2G,2 | 
[V:2] [M:3/4]z6 | 
[V:1] G,2E,E,E,2 ||  
[V:2] z6 ||  
[V:1] [M:4/4]G,4F,2E,E, | 
[V:2] [M:4/4]z8 | 
[V:1] E,4C,C,C,2 | 
[V:2] z8 | 
[V:1] F,4F,2E,E, | 
[V:2] z8 | 
[V:1] E,4C,C,C,2 | 
[V:2] z8 | 
[V:1] C,4C,2C,C, | 
[V:2] z8 | 
[V:1] C,4C,C,C,2 | 
[V:2] z8 | 
[V:1] [M:2/4]C,4 |]  
[V:2] [M:2/4]z4 |]  



